X: 82
T:Jota Valseada
M:3/4
L:1/8
Q:250
C:Trad.
S:Rep. Euxemes de Arbo
R:Jota
K:C
G"F."cG2 | A2 F"F."c F2 | G2 E"F."c  E2 | F2 "~"D2 C2- | C2 B,CDE | 
F2 D"F."c D2 | E2 C2 E2 | D2 ED C2- |1 C2 :|2 |:C"F."G C2 E2 | G3 "F."c
G"F."c | G2 A2 F2 |
G3 "F."c G2- | G2 C2D2| E4 G2| F2 E2 F2 | D2 ED C2- :| "D.C."C2

